X:1
T:The Old Elm Tree
M:3/4
L:1/8
K:G
 G3/2 A/2| B4 G3/2 F/2| E/2- G3/2- G2 E2| D2- F2 A2| G2 z2 G3/2 G/2|\
 G3 z B3/2 B/2| d4 e2| d4 G2| A3 z d3/2 d/2| d4 d2| B/2 B3/2- B z G2|\
 A- G3E-G| D3 z G3/2 A/2| B4 G3/2 G/2| E/2- G3/2- G z F3/2 E/2| D2 F2 A2|\
 G3 z||
